ids-wordpress/site-IdS/assets/images/logo-negativa.svg

<svg xmlns="http://www.w3.org/2000/svg" width="1066" height="444" fill="none"><path fill="#F75705" d="M0 .539h438.001v438H0v-438Z"/><path fill="#3A3A3A" d="M34.067 322.342V114.901h28.427v207.441H34.067Zm61.988 0V114.901h45.073c15.366 0 27.488 2.391 36.366 7.171 9.049 4.61 15.452 11.61 19.208 21 3.927 9.391 5.89 21.086 5.89 35.086v76.317c0 14.683-1.963 27.061-5.89 37.135-3.756 10.073-9.988 17.756-18.695 23.049-8.537 5.122-20.062 7.683-34.574 7.683H96.055Zm28.939-20.744h16.39c10.586 0 18.098-2.049 22.537-6.147 4.439-4.097 7.086-10.073 7.939-17.927 1.025-7.853 1.537-17.329 1.537-28.427v-67.354c0-10.756-.683-19.463-2.049-26.122-1.366-6.658-4.354-11.524-8.963-14.597-4.61-3.074-11.866-4.61-21.769-4.61h-15.622v165.184Zm155.028 23.048c-11.951 0-21.939-2.561-29.964-7.683-7.853-5.122-13.829-12.207-17.927-21.256-4.097-9.049-6.487-19.549-7.17-31.5l25.61-6.915c.512 7.342 1.622 14.427 3.329 21.257 1.878 6.829 4.866 12.463 8.963 16.902 4.098 4.268 9.817 6.403 17.159 6.403 7.512 0 13.146-2.049 16.902-6.147 3.927-4.268 5.891-10.329 5.891-18.183 0-9.39-2.134-16.902-6.403-22.536-4.268-5.805-9.646-11.61-16.134-17.415l-34.829-30.732c-6.83-5.976-11.866-12.464-15.11-19.464-3.244-7.17-4.866-15.963-4.866-26.378 0-15.195 4.354-26.976 13.061-35.341 8.707-8.366 20.573-12.549 35.598-12.549 8.195 0 15.366 1.109 21.512 3.329 6.317 2.049 11.524 5.293 15.622 9.732 4.268 4.439 7.598 10.073 9.988 16.902 2.561 6.659 4.268 14.513 5.122 23.561l-24.586 6.659c-.512-6.829-1.536-13.061-3.073-18.695-1.536-5.805-4.268-10.415-8.195-13.83-3.756-3.585-9.22-5.378-16.39-5.378-7.171 0-12.805 1.964-16.903 5.891-3.927 3.756-5.89 9.39-5.89 16.902 0 6.317 1.024 11.525 3.073 15.622 2.22 4.098 5.72 8.281 10.5 12.549l35.086 30.732c7.853 6.829 14.768 15.024 20.744 24.585 5.975 9.391 8.963 20.574 8.963 33.549 0 10.244-2.134 19.122-6.402 26.635-4.269 7.341-10.159 12.975-17.671 16.902-7.342 3.927-15.878 5.89-25.61 5.89Zm68.546-2.304v-30.476h27.403v30.476h-27.403Z"/><path fill="#fff" d="M399.672 322.342V114.901h45.074c15.366 0 27.488 2.391 36.366 7.171 9.048 4.61 15.451 11.61 19.207 21 3.927 9.391 5.89 21.086 5.89 35.086v76.317c0 14.683-1.963 27.061-5.89 37.135-3.756 10.073-9.988 17.756-18.695 23.049-8.537 5.122-20.061 7.683-34.574 7.683h-47.378Zm28.939-20.744h16.391c10.585 0 18.097-2.049 22.536-6.147 4.439-4.097 7.086-10.073 7.939-17.927 1.025-7.853 1.537-17.329 1.537-28.427v-67.354c0-10.756-.683-19.463-2.049-26.122-1.366-6.658-4.353-11.524-8.963-14.597-4.61-3.074-11.866-4.61-21.769-4.61h-15.622v165.184Zm106.113 20.744V114.901h80.415v21.513h-51.475v68.634h41.744v20.488h-41.744v76.062h51.988v20.744h-80.928Zm153.206 2.304c-11.952 0-21.94-2.561-29.964-7.683-7.854-5.122-13.829-12.207-17.927-21.256-4.098-9.049-6.488-19.549-7.171-31.5l25.61-6.915c.512 7.342 1.622 14.427 3.329 21.257 1.879 6.829 4.866 12.463 8.964 16.902 4.098 4.268 9.817 6.403 17.159 6.403 7.512 0 13.146-2.049 16.902-6.147 3.927-4.268 5.89-10.329 5.89-18.183 0-9.39-2.134-16.902-6.402-22.536-4.268-5.805-9.646-11.61-16.134-17.415l-34.83-30.732c-6.829-5.976-11.866-12.464-15.11-19.464-3.244-7.17-4.866-15.963-4.866-26.378 0-15.195 4.354-26.976 13.062-35.341 8.707-8.366 20.573-12.549 35.597-12.549 8.195 0 15.366 1.109 21.513 3.329 6.317 2.049 11.524 5.293 15.622 9.732 4.268 4.439 7.597 10.073 9.987 16.902 2.561 6.659 4.269 14.513 5.122 23.561l-24.585 6.659c-.512-6.829-1.537-13.061-3.073-18.695-1.537-5.805-4.269-10.415-8.195-13.83-3.756-3.585-9.22-5.378-16.391-5.378-7.17 0-12.805 1.964-16.902 5.891-3.927 3.756-5.891 9.39-5.891 16.902 0 6.317 1.025 11.525 3.074 15.622 2.219 4.098 5.719 8.281 10.5 12.549l35.085 30.732c7.854 6.829 14.769 15.024 20.744 24.585 5.976 9.391 8.964 20.574 8.964 33.549 0 10.244-2.134 19.122-6.403 26.635-4.268 7.341-10.158 12.975-17.671 16.902-7.341 3.927-15.878 5.89-25.609 5.89Zm73.668-2.304V114.901h28.427v207.441h-28.427Zm111.415 2.561c-12.976 0-23.39-2.732-31.244-8.196-7.683-5.634-13.317-13.744-16.903-24.329-3.414-10.585-5.122-23.305-5.122-38.159v-69.403c0-15.195 1.537-28.085 4.61-38.671 3.244-10.756 8.878-18.951 16.903-24.585 8.195-5.634 19.549-8.451 34.061-8.451 12.976 0 23.39 2.219 31.244 6.658 8.024 4.269 13.829 10.927 17.415 19.976 3.585 8.878 5.378 20.146 5.378 33.805v7.683h-27.147v-6.402c0-9.049-.597-16.391-1.792-22.025-1.195-5.805-3.671-10.073-7.427-12.805-3.586-2.902-9.305-4.354-17.159-4.354-8.536 0-14.768 1.964-18.695 5.891-3.756 3.927-6.146 9.305-7.171 16.134-.854 6.659-1.28 14.256-1.28 22.793v76.829c0 9.903.683 18.183 2.048 24.842 1.537 6.659 4.354 11.61 8.452 14.854 4.097 3.244 9.902 4.866 17.414 4.866 7.513 0 13.318-1.793 17.415-5.378 4.098-3.586 6.915-8.879 8.451-15.879 1.537-7 2.305-15.707 2.305-26.122v-14.341h-26.378v-20.488h52.5v102.696h-18.183l-2.817-23.818c-2.731 7.683-7 14-12.805 18.952-5.805 4.951-13.829 7.427-24.073 7.427Zm87.626-2.561V114.901h19.719l58.902 137.782V114.901h24.07v207.441h-18.43l-59.676-141.623v141.623h-24.585Z"/></svg>

<svg width="1066" height="444" viewBox="0 0 1066 444" fill="none" xmlns="http://www.w3.org/2000/svg">
<path d="M0 0.538574H438.001V438.539H0V0.538574Z" fill="#F75705"/>
<path d="M34.0669 322.342V114.901H62.4939V322.342H34.0669ZM96.0549 322.342V114.901H141.128C156.494 114.901 168.616 117.292 177.494 122.072C186.543 126.682 192.946 133.682 196.702 143.072C200.629 152.463 202.592 164.158 202.592 178.158V254.475C202.592 269.158 200.629 281.536 196.702 291.61C192.946 301.683 186.714 309.366 178.007 314.659C169.47 319.781 157.945 322.342 143.433 322.342H96.0549ZM124.994 301.598H141.384C151.97 301.598 159.482 299.549 163.921 295.451C168.36 291.354 171.007 285.378 171.86 277.524C172.885 269.671 173.397 260.195 173.397 249.097V181.743C173.397 170.987 172.714 162.28 171.348 155.621C169.982 148.963 166.994 144.097 162.385 141.024C157.775 137.95 150.519 136.414 140.616 136.414H124.994V301.598ZM280.022 324.646C268.071 324.646 258.083 322.085 250.058 316.963C242.205 311.841 236.229 304.756 232.131 295.707C228.034 286.658 225.644 276.158 224.961 264.207L250.571 257.292C251.083 264.634 252.193 271.719 253.9 278.549C255.778 285.378 258.766 291.012 262.863 295.451C266.961 299.719 272.68 301.854 280.022 301.854C287.534 301.854 293.168 299.805 296.924 295.707C300.851 291.439 302.815 285.378 302.815 277.524C302.815 268.134 300.681 260.622 296.412 254.988C292.144 249.183 286.766 243.378 280.278 237.573L245.449 206.841C238.619 200.865 233.583 194.377 230.339 187.377C227.095 180.207 225.473 171.414 225.473 160.999C225.473 145.804 229.827 134.023 238.534 125.658C247.241 117.292 259.107 113.109 274.132 113.109C282.327 113.109 289.498 114.218 295.644 116.438C301.961 118.487 307.168 121.731 311.266 126.17C315.534 130.609 318.864 136.243 321.254 143.072C323.815 149.731 325.522 157.585 326.376 166.633L301.79 173.292C301.278 166.463 300.254 160.231 298.717 154.597C297.181 148.792 294.449 144.182 290.522 140.767C286.766 137.182 281.302 135.389 274.132 135.389C266.961 135.389 261.327 137.353 257.229 141.28C253.302 145.036 251.339 150.67 251.339 158.182C251.339 164.499 252.363 169.707 254.412 173.804C256.632 177.902 260.132 182.085 264.912 186.353L299.998 217.085C307.851 223.914 314.766 232.109 320.742 241.67C326.717 251.061 329.705 262.244 329.705 275.219C329.705 285.463 327.571 294.341 323.303 301.854C319.034 309.195 313.144 314.829 305.632 318.756C298.29 322.683 289.754 324.646 280.022 324.646ZM348.568 322.342V291.866H375.971V322.342H348.568Z" fill="#3A3A3A"/>
<path d="M399.672 322.342V114.901H444.746C460.112 114.901 472.234 117.292 481.112 122.072C490.16 126.682 496.563 133.682 500.319 143.072C504.246 152.463 506.209 164.158 506.209 178.158V254.475C506.209 269.158 504.246 281.536 500.319 291.61C496.563 301.683 490.331 309.366 481.624 314.659C473.087 319.781 461.563 322.342 447.05 322.342H399.672ZM428.611 301.598H445.002C455.587 301.598 463.099 299.549 467.538 295.451C471.977 291.354 474.624 285.378 475.477 277.524C476.502 269.671 477.014 260.195 477.014 249.097V181.743C477.014 170.987 476.331 162.28 474.965 155.621C473.599 148.963 470.612 144.097 466.002 141.024C461.392 137.95 454.136 136.414 444.233 136.414H428.611V301.598ZM534.724 322.342V114.901H615.139V136.414H563.664V205.048H605.408V225.536H563.664V301.598H615.652V322.342H534.724ZM687.93 324.646C675.978 324.646 665.99 322.085 657.966 316.963C650.112 311.841 644.137 304.756 640.039 295.707C635.941 286.658 633.551 276.158 632.868 264.207L658.478 257.292C658.99 264.634 660.1 271.719 661.807 278.549C663.686 285.378 666.673 291.012 670.771 295.451C674.869 299.719 680.588 301.854 687.93 301.854C695.442 301.854 701.076 299.805 704.832 295.707C708.759 291.439 710.722 285.378 710.722 277.524C710.722 268.134 708.588 260.622 704.32 254.988C700.052 249.183 694.674 243.378 688.186 237.573L653.356 206.841C646.527 200.865 641.49 194.377 638.246 187.377C635.002 180.207 633.38 171.414 633.38 160.999C633.38 145.804 637.734 134.023 646.442 125.658C655.149 117.292 667.015 113.109 682.039 113.109C690.234 113.109 697.405 114.218 703.552 116.438C709.869 118.487 715.076 121.731 719.174 126.17C723.442 130.609 726.771 136.243 729.161 143.072C731.722 149.731 733.43 157.585 734.283 166.633L709.698 173.292C709.186 166.463 708.161 160.231 706.625 154.597C705.088 148.792 702.356 144.182 698.43 140.767C694.674 137.182 689.21 135.389 682.039 135.389C674.869 135.389 669.234 137.353 665.137 141.28C661.21 145.036 659.246 150.67 659.246 158.182C659.246 164.499 660.271 169.707 662.32 173.804C664.539 177.902 668.039 182.085 672.82 186.353L707.905 217.085C715.759 223.914 722.674 232.109 728.649 241.67C734.625 251.061 737.613 262.244 737.613 275.219C737.613 285.463 735.479 294.341 731.21 301.854C726.942 309.195 721.052 314.829 713.539 318.756C706.198 322.683 697.661 324.646 687.93 324.646ZM761.598 322.342V114.901H790.025V322.342H761.598ZM873.013 324.903C860.037 324.903 849.623 322.171 841.769 316.707C834.086 311.073 828.452 302.963 824.866 292.378C821.452 281.793 819.744 269.073 819.744 254.219V184.816C819.744 169.621 821.281 156.731 824.354 146.145C827.598 135.389 833.232 127.194 841.257 121.56C849.452 115.926 860.806 113.109 875.318 113.109C888.294 113.109 898.708 115.328 906.562 119.767C914.586 124.036 920.391 130.694 923.977 139.743C927.562 148.621 929.355 159.889 929.355 173.548V181.231H902.208V174.829C902.208 165.78 901.611 158.438 900.416 152.804C899.221 146.999 896.745 142.731 892.989 139.999C889.403 137.097 883.684 135.645 875.83 135.645C867.294 135.645 861.062 137.609 857.135 141.536C853.379 145.463 850.989 150.841 849.964 157.67C849.11 164.329 848.684 171.926 848.684 180.463V257.292C848.684 267.195 849.367 275.475 850.732 282.134C852.269 288.793 855.086 293.744 859.184 296.988C863.281 300.232 869.086 301.854 876.598 301.854C884.111 301.854 889.916 300.061 894.013 296.476C898.111 292.89 900.928 287.597 902.464 280.597C904.001 273.597 904.769 264.89 904.769 254.475V240.134H878.391V219.646H930.891V322.342H912.708L909.891 298.524C907.16 306.207 902.891 312.524 897.086 317.476C891.281 322.427 883.257 324.903 873.013 324.903ZM960.639 322.342V114.901H980.358L1039.26 252.683V114.901H1063.33V322.342H1044.9L985.224 180.719V322.342H960.639Z" fill="white"/>
</svg>
